X: 40085
T: Thunderbolt, The
R: reel
M: 4/4
K: Amajor
F|"A"ECEC ACEC|CDEF "E"EC{B,C}B,F|"A"ECEC ACEA|"D"{FG}FEFG "A"[A2A,2] [AA,]:|
d|"A"c/B/A eA cBAd|ce"D"df "E7"{ef}ecBd|"A"c/B/A eA cBAG|"D"{FG}FEFG "A"[A2A,2] [AA,]d|
"A"c/B/A eA cBAd|ce"D"df "E"{ef}ecB=g|"D"f/g/a "A"ed cBAG|"D"{FG}FEFG "A"[A2A,2] [AA,]||

